X:1
T:Title
%%score { ( 1 4 ) | ( 2 3 ) }
L:1/8
M:4/4
K:G
V:1 treble nm="Grand Piano"
V:4 treble 
V:2 bass 
V:3 bass 
V:1
 z4 z2 z[Q:1/4=100] B, | [GB]2 AG FEDC | B,6- B,B, | [B,GB]2 [B,GB][FA] [Ac][GB][FA][EG] | %4
 [^DF]6- [DF]F | [^DA]2 [DA]^G ABcB | [^DA]2 z2 [F,DF]2 FA | c2 BA GFGc | %8
[M:7/8] [^DB]-[DB]-[DB]- [DB]- [DB]3 |[M:1/8] z |[M:4/4] [Gd]8 | [DF]6- [DF]F | [CFc]2 cc c2 dc | %13
 [DB]6- [DB]B | c2 BA G2 FE | ^D2 CD C2 B,B, | G2 FE [^DA]2 GF | %17
[M:7/8] [B,E]-[B,E]-[B,E]- [B,E]- [B,E]3 |[M:1/8] D |[M:4/4] G2 GG G2 AB | F2 z2 ^D4 | %21
 E2 EE E2 FG | D2 z2 D4 | C2 CF [B,D]2 B,-[B,G] | E2 FG A2 [^DA]B | c2 BA G2 FG | %26
[M:7/8] A2 B c [^DB]3 |[M:1/8] B |[M:4/4] [Gd]8 | [DF]6- [DF]F | [CFc]2 cc c2 dc | [DB]6- [DB]B | %32
 c2 BA G2 FE | ^D2 CD C2 B,B, | G2 FE [^DA]2 GF |[M:15/8] [B,E]6- [B,E] z2 z6 |] %36
V:2
 z8 | [E,B,]8 | [E,G,]8 | E,2 z A, CB,A,G, | z4 A,4 | [B,,F,]2 [B,,F,]2 z4 | %6
 [B,,F,]2[K:treble] AG[K:bass] B,,2 z2 | E2 z2 z4 |[M:7/8] B,,2 ^D, F, A,3 |[M:1/8][K:treble] B | %10
[M:4/4][K:bass] [G,,G,]8 | z4 z2 z D | z2[K:treble] [CF][CF] [CF]2 [DF]C | z4 G,4 | %14
 [E,A,E]4 [E,G,B,]4 | B,2 .A,2 z2 .G,2 | E2 z2 B,,2- [B,,-G,][B,,F,] |[M:7/8] E,2 B,, G,, E,,3 | %18
[M:1/8] z |[M:4/4] D2 z2 D2 z2 | z2[K:treble] FF[K:bass] z2 G,A, | [C,G,C]4 [C,G,C]4 | z2 DD G,,4 | %23
 [D,F,A,]4 [G,,G,]2 [G,,G,]2 | [C,C]2- [C,-F,C-][C,G,C] [D,CD]2 z ^D | E2 z2 E2 z2 | %26
[M:7/8] [A,C]2 B, C [B,,F,]3 |[M:1/8] z |[M:4/4] [G,,G,]8 | z4 z2 z D | %30
 z2[K:treble] [CF][CF] [CF]2 [DF]C | z4 G,4 | [E,A,E]4 [E,G,B,]4 | B,2 .A,2 z2 .G,2 | %34
 E2 z2 B,,2- [B,,-G,][B,,F,] |[M:15/8] E,2 B,,G,, E,,2- E,, z2 z6 |] %36
V:3
 x8 | x8 | x8 | z2 E,6 | B,,2 ^D,F, z2 z ^D | x8 | x2[K:treble] x2[K:bass] x4 | [A,C]8 | %8
[M:7/8] x7 |[M:1/8][K:treble] x |[M:4/4][K:bass] x8 | [D,C]8 | D,8[K:treble] | G,,2 D,E, z2 z D | %14
 x8 | [B,,F,]4 [E,,E,]4 | [E,B,]4 F,2 z2 |[M:7/8] x7 |[M:1/8] x |[M:4/4] [G,B,]4 [G,B,]4 | %20
 B,,4[K:treble][K:bass] B,,4 | x8 | G,,4 z4 | x8 | G,2 z2 z2 [B,,F,]2 | [E,A,]4 [E,B,]4 | %26
[M:7/8] E,- E,3 z z2 |[M:1/8] x |[M:4/4] x8 | [D,C]8 | D,8[K:treble] | G,,2 D,E, z2 z D | x8 | %33
 [B,,F,]4 [E,,E,]4 | [E,B,]4 F,2 z2 |[M:15/8] x15 |] %36
V:4
 x8 | x8 | x8 | x8 | x8 | x8 | x8 | x8 |[M:7/8] x7 |[M:1/8] x |[M:4/4] x8 | x8 | x8 | x8 | x8 | %15
 x8 | x8 |[M:7/8] x7 |[M:1/8] x |[M:4/4] x8 | [F,^D]4 [F,F]2 GA | x8 | [G,B,]4 [G,B,]3- [G,B,E] | %23
 z4 z2 .D2 | x8 | x8 |[M:7/8] x7 |[M:1/8] x |[M:4/4] x8 | x8 | x8 | x8 | x8 | x8 | x8 | %35
[M:15/8] x15 |] %36

